resources/svg/solid/ticket.svg

<svg fill="currentColor" xmlns="http://www.w3.org/2000/svg" viewBox="0 0 576 512"><!--! Font Awesome Free 6.6.0 by @fontawesome - https://fontawesome.com License - https://fontawesome.com/license/free (Icons: CC BY 4.0, Fonts: SIL OFL 1.1, Code: MIT License) Copyright 2024 Fonticons, Inc. --><path d="M64 64C28.7 64 0 92.7 0 128l0 64c0 8.8 7.4 15.7 15.7 18.6C34.5 217.1 48 235 48 256s-13.5 38.9-32.3 45.4C7.4 304.3 0 311.2 0 320l0 64c0 35.3 28.7 64 64 64l448 0c35.3 0 64-28.7 64-64l0-64c0-8.8-7.4-15.7-15.7-18.6C541.5 294.9 528 277 528 256s13.5-38.9 32.3-45.4c8.3-2.9 15.7-9.8 15.7-18.6l0-64c0-35.3-28.7-64-64-64L64 64zm64 112l0 160c0 8.8 7.2 16 16 16l288 0c8.8 0 16-7.2 16-16l0-160c0-8.8-7.2-16-16-16l-288 0c-8.8 0-16 7.2-16 16zM96 160c0-17.7 14.3-32 32-32l320 0c17.7 0 32 14.3 32 32l0 192c0 17.7-14.3 32-32 32l-320 0c-17.7 0-32-14.3-32-32l0-192z"/></svg>

<svg fill="currentColor" xmlns="http://www.w3.org/2000/svg" viewBox="0 0 576 512"><!--! Font Awesome Free 6.5.2 by @fontawesome - https://fontawesome.com License - https://fontawesome.com/license/free (Icons: CC BY 4.0, Fonts: SIL OFL 1.1, Code: MIT License) Copyright 2024 Fonticons, Inc. --><path d="M64 64C28.7 64 0 92.7 0 128v64c0 8.8 7.4 15.7 15.7 18.6C34.5 217.1 48 235 48 256s-13.5 38.9-32.3 45.4C7.4 304.3 0 311.2 0 320v64c0 35.3 28.7 64 64 64H512c35.3 0 64-28.7 64-64V320c0-8.8-7.4-15.7-15.7-18.6C541.5 294.9 528 277 528 256s13.5-38.9 32.3-45.4c8.3-2.9 15.7-9.8 15.7-18.6V128c0-35.3-28.7-64-64-64H64zm64 112l0 160c0 8.8 7.2 16 16 16H432c8.8 0 16-7.2 16-16V176c0-8.8-7.2-16-16-16H144c-8.8 0-16 7.2-16 16zM96 160c0-17.7 14.3-32 32-32H448c17.7 0 32 14.3 32 32V352c0 17.7-14.3 32-32 32H128c-17.7 0-32-14.3-32-32V160z"/></svg>
